public/images/header/logo.svg

<svg width="161" height="24" viewBox="0 0 161 24" fill="none" xmlns="http://www.w3.org/2000/svg">
<g clip-path="url(#clip0_954_1332)">
<path d="M43.1374 18.756C44.3006 18.756 45.276 18.756 46.3066 18.756C46.3066 20.1784 46.3066 21.5322 46.3066 22.9492C46.0738 22.9755 45.8451 23.0193 45.6158 23.0249C41.9541 23.1103 38.2922 23.1948 34.6304 23.2719C30.2157 23.3653 26.136 20.2683 24.5892 15.6582C23.1186 11.2753 24.5137 6.10368 27.9573 3.17247C32.1123 -0.364166 37.6829 -0.214101 41.6353 3.54118C45.5447 7.25562 46.3435 13.1475 43.5886 17.9459C43.468 18.1555 43.353 18.3686 43.1374 18.756ZM34.6171 18.9917C38.0402 19.0841 40.901 16.0757 40.9791 12.3024C41.0642 8.18568 38.4322 5.09537 34.7351 4.9711C31.3149 4.85629 28.3645 7.8649 28.2647 11.569C28.152 15.7569 30.8332 18.8897 34.6171 18.9917Z" fill="white"/>
<path d="M111.959 23.2439C105.828 22.9624 101.474 17.2462 101.883 11.2621C102.309 5.04664 107.439 0.268637 112.914 0.611336C118.828 0.981769 123.501 6.64253 123.068 12.8051C122.644 18.8251 117.416 23.7196 111.959 23.2439ZM118.828 11.9976C118.833 7.96367 116.101 4.87615 112.498 4.84368C108.938 4.81165 106.113 7.95141 106.108 11.9436C106.104 15.9182 109.005 19.0861 112.612 19.0442C116.142 19.0031 118.823 15.9642 118.828 11.9976Z" fill="white"/>
<path d="M21.1992 12.0158C21.1964 18.1644 16.3535 23.2872 10.5568 23.273C4.72722 23.2588 -0.00703567 18.1841 7.84921e-06 11.9571C0.00705137 5.76959 4.80691 0.617282 10.5689 0.612552C16.3448 0.607608 21.2022 5.81818 21.1992 12.0158ZM4.24927 11.9893C4.26154 15.9443 7.08015 19.0286 10.6961 19.0437C14.2094 19.0581 16.9839 15.9272 16.9802 11.9521C16.9763 7.98058 14.1364 4.82384 10.5857 4.84469C6.98597 4.86576 4.23679 7.96531 4.24927 11.9893Z" fill="white"/>
<path d="M143.108 23.0191C141.489 23.0191 140.067 23.0496 138.648 22.9898C138.406 22.9797 138.118 22.6282 137.951 22.3633C136.814 20.5714 135.663 18.7867 134.603 16.9431C134.166 16.1857 133.665 15.8944 132.868 15.986C132.371 16.0432 131.865 15.9965 131.243 15.9965C131.243 18.3681 131.243 20.6453 131.243 22.9728C129.85 22.9728 128.579 22.9728 127.239 22.9728C127.239 15.6295 127.239 8.32493 127.239 0.91778C127.595 0.900581 127.942 0.861881 128.287 0.871341C130.786 0.939709 133.309 0.818882 135.78 1.1446C138.678 1.52642 140.779 3.26916 141.36 6.48739C141.954 9.77571 141.315 12.6973 138.602 14.7805C138.531 14.8356 138.469 14.9046 138.333 15.0319C139.887 17.6307 141.444 20.2362 143.108 23.0191ZM131.292 11.7674C132.192 11.7674 132.992 11.7797 133.79 11.7625C134.206 11.7534 134.625 11.7242 135.035 11.6496C136.322 11.4148 137.251 10.176 137.32 8.63645C137.393 6.9995 136.63 5.50079 135.382 5.28902C134.056 5.06392 132.688 5.11638 131.292 5.04543C131.292 7.36822 131.292 9.48826 131.292 11.7674Z" fill="white"/>
<path d="M150.645 13.9858C150.645 15.6382 150.645 17.1251 150.645 18.762C154.092 18.762 157.525 18.762 161 18.762C161 20.2378 161 21.5643 161 22.9596C156.202 22.9596 151.42 22.9596 146.573 22.9596C146.573 15.6311 146.573 8.3293 146.573 0.94751C151.239 0.94751 155.894 0.94751 160.606 0.94751C160.606 2.30541 160.606 3.62654 160.606 5.07796C157.298 5.07796 154.01 5.07796 150.66 5.07796C150.66 6.68374 150.66 8.16095 150.66 9.77491C153.581 9.77491 156.481 9.77491 159.429 9.77491C159.429 11.2317 159.429 12.5526 159.429 13.9858C156.513 13.9858 153.638 13.9858 150.645 13.9858Z" fill="white"/>
<path d="M72.5437 0.0163371C75.6334 7.62021 78.7231 15.2239 81.8887 23.0144C80.3134 23.0144 78.869 23.0341 77.4265 22.9881C77.2555 22.9827 77.032 22.6469 76.9395 22.4158C76.5298 21.3922 76.1963 20.3325 75.7503 19.3287C75.6246 19.0456 75.2151 18.7392 74.9287 18.7311C73.0513 18.6777 71.1718 18.7255 69.2938 18.6896C68.7732 18.6797 68.5563 18.9172 68.3875 19.3831C68.0329 20.3618 67.6121 21.314 67.2774 22.2999C67.0816 22.8765 66.7715 23.0634 66.2132 23.0402C65.1796 22.9974 64.1433 23.0277 62.9417 23.0277C66.1023 15.2484 69.2001 7.6243 72.2976 0C72.3797 0.00558982 72.4616 0.0109622 72.5437 0.0163371ZM70.1393 14.9487C71.5199 14.9487 72.7734 14.9487 74.1604 14.9487C73.5003 13.1672 72.8809 11.4959 72.1944 9.64351C71.4779 11.4933 70.8263 13.1756 70.1393 14.9487Z" fill="white"/>
<path d="M98.6293 2.52569C98.1004 3.88036 97.5903 5.1873 97.0389 6.6011C95.1397 5.22557 93.1666 4.4359 90.93 5.0897C89.5209 5.50162 88.4346 6.45318 87.6296 7.72358C85.885 10.4776 86.1671 14.8904 88.1816 17.0611C90.5193 19.5802 94.0071 19.7215 97.3965 17.3353C97.917 18.5491 98.4449 19.7382 98.9213 20.9499C98.97 21.0738 98.7622 21.4098 98.5984 21.5186C93.14 25.1384 83.5753 23.4002 82.3182 13.7141C81.9922 11.2024 82.355 8.76779 83.3644 6.45038C85.0082 2.67661 88.7664 0.344371 92.6612 0.621927C94.7765 0.772637 96.7619 1.28454 98.6293 2.52569Z" fill="white"/>
<path d="M49.0881 5.11021C49.0881 3.65579 49.0881 2.33615 49.0881 0.942139C53.7171 0.942139 58.3113 0.942139 62.9626 0.942139C62.9626 2.30111 62.9626 3.62332 62.9626 5.07194C61.3317 5.07194 59.7111 5.07194 58.0017 5.07194C58.0017 11.1003 58.0017 17.0041 58.0017 22.9677C56.6128 22.9677 55.3154 22.9677 53.9109 22.9677C53.9109 17.0374 53.9109 11.1408 53.9109 5.11021C52.251 5.11021 50.6926 5.11021 49.0881 5.11021Z" fill="white"/>
</g>
<defs>
<clipPath id="clip0_954_1332">
<rect width="161" height="24" fill="white"/>
</clipPath>
</defs>
</svg>

<svg xmlns="http://www.w3.org/2000/svg" width="161" height="24" viewBox="0 0 161 24" fill="none"><g clip-path="url(#clip0_954_1332)"><path d="M43.137 18.756h3.17v4.193c-.233.025-.462.07-.691.075-3.662.085-7.324.17-10.986.247-4.414.093-8.494-3.004-10.04-7.614-1.471-4.383-.076-9.554 3.367-12.486 4.155-3.536 9.726-3.386 13.678.37 3.91 3.714 4.708 9.606 1.954 14.404-.122.21-.237.423-.453.81zm-8.52.236c3.423.092 6.284-2.916 6.362-6.69.084-4.116-2.548-7.207-6.245-7.33-3.42-.116-6.37 2.893-6.47 6.597-.113 4.187 2.568 7.32 6.352 7.422z" fill="white"/><path d="M111.96 23.244c-6.132-.282-10.486-5.998-10.077-11.982.426-6.215 5.556-10.993 11.03-10.65 5.915.37 10.588 6.03 10.155 12.193-.424 6.02-5.652 10.915-11.11 10.439zm6.868-11.246c.005-4.034-2.727-7.122-6.33-7.154-3.56-.032-6.385 3.107-6.39 7.1-.004 3.974 2.897 7.142 6.504 7.1 3.53-.04 6.21-3.08 6.216-7.046z" fill="white"/><path d="M21.2 12.016c-.004 6.148-4.847 11.271-10.643 11.257C4.727 23.26-.007 18.184 0 11.957.007 5.77 4.807.617 10.57.613 16.344.608 21.2 5.818 21.199 12.016zm-16.95-.027c.012 3.954 2.83 7.039 6.446 7.054 3.513.014 6.288-3.117 6.284-7.092-.004-3.971-2.844-7.128-6.394-7.107-3.6.02-6.35 3.12-6.337 7.144z" fill="white"/><path d="M143.108 23.02c-1.62 0-3.04.03-4.46-.03-.242-.01-.53-.362-.697-.627-1.136-1.792-2.287-3.576-3.347-5.42-.437-.757-.938-1.049-1.735-.957-.497.057-1.003.01-1.625.01v6.977h-4.004V.918c.355-.017.702-.056 1.047-.047 2.5.07 5.022-.051 7.493.275 2.898.381 5 2.124 5.58 5.342.594 3.289-.045 6.21-2.758 8.293-.07.056-.133.125-.27.252l4.776 7.987zm-11.816-11.253c.9 0 1.7.013 2.498-.005.416-.009.835-.038 1.245-.112 1.287-.235 2.216-1.474 2.285-3.014.073-1.636-.69-3.135-1.938-3.347-1.326-.226-2.694-.174-4.09-.245v6.722z" fill="white"/><path d="M150.645 13.986v4.776H161v4.198h-14.427V.948h14.033v4.13h-9.946v4.697h8.77v4.21h-8.785z" fill="white"/><path d="m72.544.016 9.345 22.998c-1.577 0-3.02.02-4.464-.026-.17-.005-.394-.341-.487-.572-.41-1.024-.744-2.083-1.19-3.087-.125-.284-.535-.59-.821-.599-1.879-.052-3.758-.004-5.636-.04-.52-.01-.738.227-.907.693-.354.979-.775 1.93-1.11 2.917-.195.576-.506.763-1.064.74-1.033-.043-2.07-.012-3.271-.012L72.298 0l.246.016zM70.139 14.95l4.02-.001-1.966-5.306-2.055 5.305z" fill="white"/><path d="M98.63 2.526C98.1 3.88 97.59 5.187 97.038 6.6c-1.9-1.374-3.873-2.164-6.11-1.51-1.41.412-2.495 1.363-3.3 2.634-1.745 2.754-1.463 7.166.552 9.337 2.337 2.52 5.825 2.662 9.215.275.52 1.214 1.048 2.403 1.524 3.615.05.124-.158.46-.322.569-5.458 3.618-15.023 1.88-16.28-7.806-.326-2.512.037-4.946 1.046-7.264C85.008 2.677 88.766.344 92.661.622c2.116.15 4.102.663 5.97 1.904z" fill="white"/><path d="M49.088 5.11V.942h13.875v4.13h-4.961v17.896H53.91V5.11h-4.822z" fill="white"/></g><defs><clipPath id="clip0_954_1332"><rect width="161" height="24" fill="white"/></clipPath></defs></svg>
